build/images/icons/search.svg

<svg width="16" height="17" viewBox="0 0 16 17" fill="none" xmlns="http://www.w3.org/2000/svg">
<path fill-rule="evenodd" clip-rule="evenodd" d="M6.16666 12.5613C2.76091 12.5613 0 9.74937 0 6.28066C0 2.81195 2.76091 0 6.16666 0C9.57241 0 12.3333 2.81195 12.3333 6.28066C12.3333 7.77037 11.8241 9.13895 10.9732 10.2157L15.8047 15.1366C16.0651 15.4018 16.0651 15.8317 15.8047 16.0969C15.5444 16.362 15.1223 16.362 14.8619 16.0969L10.0304 11.1759C8.97322 12.0426 7.62941 12.5613 6.16666 12.5613ZM6.16666 11.2026C8.83604 11.2026 11 8.99866 11 6.27996C11 3.56125 8.83604 1.3573 6.16666 1.3573C3.49727 1.3573 1.33331 3.56125 1.33331 6.27996C1.33331 8.99866 3.49727 11.2026 6.16666 11.2026Z" fill="#C4C4C4"/>
</svg>

<svg width="16" height="17" fill="none" xmlns="http://www.w3.org/2000/svg"><path fill-rule="evenodd" clip-rule="evenodd" d="M6.167 12.561C2.76 12.561 0 9.75 0 6.281 0 2.812 2.76 0 6.167 0c3.405 0 6.166 2.812 6.166 6.28 0 1.49-.509 2.859-1.36 3.936l4.832 4.92c.26.266.26.696 0 .96a.658.658 0 01-.943 0l-4.832-4.92a6.072 6.072 0 01-3.863 1.385zm0-1.358C8.836 11.203 11 8.999 11 6.28S8.836 1.357 6.167 1.357c-2.67 0-4.834 2.204-4.834 4.923s2.164 4.923 4.834 4.923z" fill="#C4C4C4"/></svg>
